X:444
T: DU MEIN EINZIG LICHT
N: E1650
O: Europa, Mitteleuropa, Deutschland
R: Staende -, Hofe -, Ritter - Lied, Liebe
M: 4/4
L: 1/8
K: Bb
B2F2 | B4c4 | d3
ef2f2 | e4d4 | c4
c2c2 | c4d4 | B4
c2B2 | A4G4 | F2
F2B2A2 | B4c4 | d2
f2e2e2 | d4c4 | B4

